X:1
T:Title
%%score { ( 1 2 3 ) | ( 4 5 ) }
L:1/8
Q:1/4=100
M:4/4
K:Bb
V:1 treble nm="Grand Piano"
V:2 treble 
V:3 treble 
V:4 bass 
V:5 bass 
V:1
 F6 z2 | E4 c4 | c6 z2 | F6 z2 | z z/ E/ E>E z z/ B/ c>B | d4 F4 | z z/ C/ C>C z z/ G/ c>d | %7
w: Ira~B.~Wilson|||||||
 [Ec]6 z2 | [DF]2 [B,D^F]2 [DG]2 [B,DA]2 | z2 [Bd]d [Bd]2 [Bd]2 | [DF]2 [B,D^F]2 [DG]2 [B,DA]2 | %11
w: ||||
 z2 [ce]e [ce]2 [ce]2 | A4 B4 | [Fd]2 [Ec]2 [EA]2 [A,CEF]2 | [DG]>A G>A [DG]2 [B,D]2 | F8 | %16
w: |||||
 [DF]2 [B,D^F]2 [DG]2 [B,DA]2 | z2 [Bd]d [Bd]2 [Bd]2 | [DF]2 [B,D_A]2 [EG]2 [=B,DF]2 | %19
w: |||
 z2 [ce]e [ce]2 [ce]2 | [_D^FB]2 [B,DF]2 [=D=FB]2 F2 | E2 D2 G2 [EB]2 | [Fd]4 [Fc]4 | %23
w: ||||
 [DFB]6[K:bass] z2 |] %24
w: |
V:2
 z z/ D/ D>D z z/ G/ F>=E | z z/ C/ C>C z2 E2 | z z/ E/ E>E z z/ =B/ d>c | z z/ D/ D>D D2 D2 | %4
 G6 z2 | z z/ D/ D>D z2 D2 | =E6 z2 | z z/ [A,C]/ [A,C]>[A,C] [A,C]2 z2 | x8 | D8 | x8 | E8 | %12
 z2 F2 z2 [A,CEF]2 | x8 | x8 | z2 [_A,D]2 [=A,E]4 | x8 | D8 | x8 | E8 | x8 | x8 | x8 | %23
 z2[K:bass] F,2 B,,2 z2 |] %24
V:3
 z4 D2 z2 | x8 | z4 E2 z2 | x8 | z4 E2 z2 | x8 | z4 C2 z2 | x8 | x8 | x8 | x8 | x8 | x8 | x8 | x8 | %15
 x8 | x8 | x8 | x8 | x8 | x8 | x8 | x8 | x2[K:bass] x6 |] %24
V:4
 B,,>[F,B,] [F,B,]>[F,B,] [F,B,]2 [F,B,D]2 | C,>[F,A,] [F,A,]>[F,A,] [F,A,E]2 [F,A,]2 | %2
 F,,>[F,A,] [F,A,]>[F,A,] [F,A,]2 [F,A,E]2 | B,,>[F,B,] [F,B,]>[F,B,] [F,B,]2 [F,B,]2 | %4
 E,>[G,B,] [G,B,]>[G,B,] [G,B,]2 [^F,B,E]2 | B,,>[F,B,] [F,B,]>[F,B,] [F,B,D]2 [F,B,]2 | %6
 C,>[G,B,] [G,B,]>[G,B,] [G,B,]2 [G,B,C=E]2 | F,,>F, F,>F, F,>[K:treble]E A>G | B,,2 F,2 F,,2 F,2 | %9
 z2 [F,B,]2[K:treble][K:bass] z4 | B,,2 F,2 F,,2 F,2 | z2 [F,A,C]2[K:treble][K:bass] z4 | %12
 C,2 [F,A,CE]2 F,,2 F,2 | A,,2 [F,A,C]2 F,,2 F,2 | B,,2 [F,B,D]2 F,,2 F,2 | B,,2 =B,,2 C,2 F,,2 | %16
 B,,2 F,2 F,,2 F,2 | z2 [F,B,]2[K:treble][K:bass] z4 | B,,2 F,2 =B,,2 G,2 | %19
 z2[K:treble] [G,C]2[K:bass] z4 | =E,,2 =E,2 F,,2 [F,B,D]2 | [G,B,]2 [F,A,]2 [E,G,C]2 [C,G,]2 | %22
 [F,,F,]4 [F,A,E]4 | [B,,B,]2 F,,2 B,,,2 z2 |] %24
V:5
 x8 | x8 | x8 | x8 | x8 | x8 | x8 | x11/2[K:treble] x5/2 | x8 | %9
 B,,2 z[K:treble] B[K:bass] F,,2 [F,B,]2 | x8 | C,2 z[K:treble] c[K:bass] F,,2 [F,A,C]2 | x8 | x8 | %14
 x8 | x8 | x8 | B,,2 z[K:treble] B[K:bass] F,,2 [F,B,]2 | x8 | %19
 C,2[K:treble] z c[K:bass] G,,2 [G,C]2 | x8 | x8 | x8 | x8 |] %24

